X:99
T:Madam If You Please
R:hornpipe
M:4/4
L:1/8
K:Gmaj
(3GFE |: D>GB>A G2 F>D |GA (3B^cd f2 g>e | f>d^c>A d>cA>G | F>DB>A G>FD>C |
D>GG>F G>BA>G | (3EFG A>B (3c^cd (3efg | f>d^c>e d>cA>F | (3GAG G>F [1 (3GAG G>E :|2 G2 ||
B>^c | d2 d>e f>AB>g | f>d^c>e d3 e | f>ed>^c (3ABc A>G | F>DB>A G>FD>C |
D>GG>F G2 A>G | (3EFG A>B ^c>d (3efg | f>d (3gfe d>^cA>F | G>AG>F G2 :|

